**kern	**kern	**dynam
*part1	*part1	*part1
*staff2	*staff1	*
*I"Piano	*	*
*clefF4	*clefG2	*
*k[]	*k[]	*
=1	=1	=1
*	*^	*
2EE] 2E]	2.a	1B 1e	.
[2AAA [2AA	.	.	.
.	4g#X	.	.
=	=	=	=
4.AAA] 4.AA]	1e) [1ee	2g#X 2ee	.
8BBB 8BB	.	.	.
2CC) 2C	.	[2a	.
=	=	=	=
*^	*	*^	*
(2e	1rF	2ee]	1a_	4.a\	.
.	.	.	.	8b\	.
[2A)	.	[2cc	.	2cc\	.
*	*	*	*v	*v	*
=	=	=	=	=
4.A]	(2F	2cc]	2a]	.
8B	.	.	.	.
2c	2D	(2ff	2a	.
=	=	=	=	=
2B	2E	2ee	2g#X	.
2A	2AA)	2cc)	2a	.
*v	*v	*	*	*
=	=	=	=
1r	[1b	2b	p
.	.	[2e	.
=	=	=	=
*^	*	*^	*
(2B	1rF	2b]	1e_	4.e\	.
.	.	.	.	8f#X\	.
2E)	.	[2g	.	2g\	.
*	*	*	*v	*v	*
=	=	=	=	=
(4.E	(2E	2g]	2e]	.
8F#X	.	.	.	.
2G)	2AA)	2cc	2e	.
*v	*v	*	*	*
*	*v	*v	*
=	=	=
*-	*-	*-
!!!system-decoration: {(s1,s2)}
